svg/config.svg

<?xml version="1.0" encoding="UTF-8"?>
<svg xmlns="http://www.w3.org/2000/svg" xmlns:xlink="http://www.w3.org/1999/xlink" width="32" height="32" viewBox="0 0 32 32">
<path fill-rule="nonzero" fill="rgb(25.098041%, 25.098041%, 25.490198%)" fill-opacity="1" d="M 25.921875 14.015625 C 24.957031 14.113281 24.03125 14.457031 23.230469 15.007812 C 23.265625 15.296875 23.296875 15.585938 23.296875 15.902344 C 23.296875 19.949219 20.015625 23.230469 15.96875 23.230469 C 15.648438 23.230469 15.359375 23.199219 15.070312 23.167969 C 14.496094 24 14.113281 24.960938 14.015625 25.984375 L 14.015625 26.015625 C 14.015625 26.398438 13.953125 26.753906 13.921875 27.136719 L 13.886719 27.550781 L 13.855469 27.550781 C 13.800781 27.824219 13.726562 28.089844 13.632812 28.351562 L 14.433594 31.808594 L 17.601562 31.808594 L 18.496094 27.9375 C 20.0625 27.617188 21.503906 27.007812 22.785156 26.144531 L 26.144531 28.257812 L 28.382812 26.015625 L 26.238281 22.65625 C 27.113281 21.359375 27.722656 19.902344 28.03125 18.367188 L 31.902344 17.472656 L 31.902344 14.304688 L 28.480469 13.535156 C 27.648438 13.824219 26.816406 13.984375 25.921875 14.015625 M 4.097656 18.304688 C 4.734375 18.113281 5.3125 18.046875 5.886719 17.953125 C 6.496094 17.855469 7.039062 17.792969 7.519531 17.601562 C 7.9375 17.441406 8.320312 17.246094 8.703125 17.023438 C 8.671875 16.640625 8.640625 16.289062 8.640625 15.902344 C 8.640625 13.886719 9.472656 12.0625 10.785156 10.71875 C 12.128906 9.40625 13.953125 8.574219 15.96875 8.574219 C 16.351562 8.574219 16.703125 8.609375 17.054688 8.671875 C 17.5625 7.917969 17.882812 7.050781 17.984375 6.144531 C 17.984375 5.3125 18.144531 4.480469 18.398438 3.710938 L 17.566406 0 L 14.398438 0 L 13.503906 3.871094 C 11.9375 4.191406 10.496094 4.800781 9.214844 5.664062 L 5.824219 3.519531 L 3.585938 5.761719 L 5.695312 9.121094 C 4.863281 10.398438 4.222656 11.839844 3.902344 13.40625 L 0.0625 14.304688 L 0.0625 17.472656 L 3.871094 18.335938 C 3.9375 18.335938 4.03125 18.335938 4.097656 18.304688 M 21.246094 14.59375 C 21.722656 14.117188 22.261719 13.707031 22.847656 13.375 C 23.769531 12.839844 24.792969 12.511719 25.855469 12.414062 C 26.34375 12.414062 26.828125 12.351562 27.296875 12.222656 C 28.257812 11.992188 29.144531 11.53125 29.886719 10.878906 C 31.417969 9.535156 32.195312 7.527344 31.96875 5.503906 C 31.953125 5.320312 31.832031 5.167969 31.660156 5.105469 C 31.488281 5.042969 31.296875 5.085938 31.167969 5.214844 L 28.929688 7.457031 C 28.539062 7.855469 28 8.082031 27.441406 8.082031 C 26.882812 8.082031 26.34375 7.855469 25.953125 7.457031 L 24.542969 6.046875 C 24.140625 5.65625 23.917969 5.121094 23.917969 4.558594 C 23.917969 4 24.140625 3.460938 24.542969 3.070312 L 26.785156 0.832031 C 27.070312 0.542969 26.878906 0.0976562 26.496094 0.03125 C 24.613281 -0.199219 22.730469 0.464844 21.40625 1.824219 C 20.71875 2.503906 20.203125 3.339844 19.902344 4.257812 C 19.6875 4.894531 19.578125 5.566406 19.585938 6.238281 C 19.484375 7.253906 19.167969 8.238281 18.65625 9.121094 C 18.328125 9.707031 17.917969 10.246094 17.441406 10.71875 L 10.753906 17.40625 C 10.433594 17.726562 10.113281 18.015625 9.761719 18.238281 C 9.566406 18.367188 9.34375 18.496094 9.152344 18.625 C 8.734375 18.847656 8.289062 19.070312 7.839844 19.199219 C 7.105469 19.457031 6.398438 19.519531 5.632812 19.585938 C 5.183594 19.617188 4.734375 19.710938 4.289062 19.839844 C 3.34375 20.136719 2.484375 20.664062 1.792969 21.375 C 0.453125 22.710938 -0.207031 24.582031 0 26.464844 C 0.03125 26.847656 0.511719 27.007812 0.800781 26.753906 L 3.039062 24.511719 C 3.433594 24.113281 3.96875 23.886719 4.527344 23.886719 C 5.085938 23.886719 5.625 24.113281 6.015625 24.511719 L 7.425781 25.921875 C 8.257812 26.753906 8.257812 28.0625 7.425781 28.894531 L 5.183594 31.136719 C 4.894531 31.425781 5.089844 31.871094 5.472656 31.9375 C 7.5 32.171875 9.507812 31.390625 10.847656 29.855469 C 11.457031 29.152344 11.902344 28.351562 12.128906 27.457031 C 12.222656 27.136719 12.289062 26.816406 12.320312 26.496094 C 12.382812 25.953125 12.414062 25.441406 12.511719 24.929688 C 12.609375 24.449219 12.769531 24 12.960938 23.550781 C 13.089844 23.265625 13.214844 23.007812 13.375 22.71875 C 13.699219 22.15625 14.097656 21.640625 14.558594 21.183594 Z M 21.246094 14.59375 "/>
</svg>

<svg role="img" viewBox="0 0 32 32" xmlns="http://www.w3.org/2000/svg"><path d="M25.922 14.016a5.8 5.8 0 0 0-2.692.992c.036.289.067.578.067.894a7.33 7.33 0 0 1-7.328 7.328c-.32 0-.61-.03-.899-.062-.574.832-.957 1.793-1.054 2.816v.032c0 .382-.063.738-.094 1.12l-.035.415h-.032q-.081.409-.222.8l.8 3.458h3.169l.894-3.872c1.567-.32 3.008-.93 4.29-1.792l3.359 2.113 2.238-2.242-2.145-3.36a11.8 11.8 0 0 0 1.793-4.289l3.871-.894v-3.168l-3.422-.77c-.832.29-1.664.45-2.558.48m-21.824 4.29c.636-.192 1.215-.258 1.789-.352.61-.098 1.152-.16 1.633-.351.418-.16.8-.356 1.183-.579-.031-.382-.062-.734-.062-1.12 0-2.016.832-3.84 2.144-5.184 1.344-1.313 3.168-2.145 5.184-2.145.383 0 .734.035 1.086.098a5.65 5.65 0 0 0 .93-2.527c0-.832.16-1.665.413-2.434L17.566 0h-3.168l-.894 3.871c-1.566.32-3.008.93-4.29 1.793L5.825 3.52 3.586 5.762l2.11 3.36c-.833 1.276-1.473 2.718-1.794 4.284l-3.84.899v3.168l3.81.863c.066 0 .16 0 .226-.031m17.148-3.711a7.5 7.5 0 0 1 1.602-1.219 7.3 7.3 0 0 1 3.007-.96 5.4 5.4 0 0 0 1.442-.192 6.06 6.06 0 0 0 2.59-1.344 6.23 6.23 0 0 0 2.082-5.375.47.47 0 0 0-.309-.399.47.47 0 0 0-.492.11L28.93 7.457a2.1 2.1 0 0 1-1.489.625 2.1 2.1 0 0 1-1.488-.625l-1.41-1.41a2.07 2.07 0 0 1-.625-1.488c0-.559.223-1.098.625-1.489L26.785.832c.285-.289.094-.734-.289-.8a6.08 6.08 0 0 0-5.09 1.792 6.1 6.1 0 0 0-1.504 2.434 6 6 0 0 0-.316 1.98 7.2 7.2 0 0 1-.93 2.883 7.2 7.2 0 0 1-1.215 1.598l-6.687 6.687c-.32.32-.64.61-.992.832-.196.13-.418.258-.61.387-.418.223-.863.445-1.312.574-.735.258-1.442.32-2.207.387-.45.031-.899.125-1.344.254a6 6 0 0 0-2.496 1.535A6.22 6.22 0 0 0 0 26.465c.031.383.512.543.8.289l2.24-2.242a2.1 2.1 0 0 1 1.487-.625 2.1 2.1 0 0 1 1.489.625l1.41 1.41c.832.832.832 2.14 0 2.973l-2.242 2.242c-.29.289-.094.734.289.8a6.19 6.19 0 0 0 5.375-2.082c.609-.703 1.054-1.503 1.28-2.398q.144-.48.192-.96c.063-.544.094-1.056.192-1.567.097-.48.258-.93.449-1.38.129-.284.254-.542.414-.831a7.3 7.3 0 0 1 1.184-1.535Zm0 0" fill="rgb(25.098041%, 25.098041%, 25.490198%)"/></svg>
